icon/lg/concretecms-icon.svg

<?xml version="1.0" encoding="UTF-8"?>
<svg viewBox="0 0 256 256" version="1.1" xmlns="http://www.w3.org/2000/svg" preserveAspectRatio="xMidYMid" height="1em" width="1em">
  <g>
    <path d="M20.8979592,0 L235.102041,0 C246.595918,0 256,9.40408163 256,20.8979592 L256,235.102041 C256,246.595918 246.595918,256 235.102041,256 L20.8979592,256 C9.40408163,256 0,246.595918 0,235.102041 L0,20.8979592 C0,9.40408163 9.40408163,0 20.8979592,0 Z" fill="#181819"/>
    <path d="M154.122449,213.206465 C146.808163,217.124833 137.404082,219.475853 131.918367,219.998302 C109.97551,221.826873 88.0326531,216.079935 72.8816327,201.451363 C57.9918367,185.777894 54.8571429,164.879935 68.4408163,147.639118 C80.9795918,131.704424 101.355102,124.651363 122.514286,123.86769 C134.269388,123.345241 173.97551,128.047282 162.220408,147.116669 C152.816327,162.790139 126.955102,147.116669 112.065306,152.079935 C95.3469388,157.565649 90.644898,179.769731 106.318367,189.173812 C117.812245,195.965649 134.269388,195.4432 145.240816,188.390139 C160.914286,178.202384 190.171429,130.398302 208.979592,153.124833 C212.636735,157.826873 168.489796,205.369731 154.122449,213.206465 M43.8857143,89.3860571 C42.3183673,81.5493224 44.4081633,72.6676898 52.244898,73.7125878 C59.0367347,74.7574857 61.3877551,84.4227918 62.6938776,91.2146286 C63.7387755,96.9615673 77.844898,137.712588 70.5306122,136.406465 C63.477551,134.839118 45.4530612,97.4840163 43.8857143,89.3860571 M81.5020408,43.6717714 C91.9510204,34.7901388 96.9142857,49.9411592 98.2204082,57.5166694 C99.2653061,64.8309551 112.587755,120.210547 98.4816327,119.165649 C87.7714286,118.381976 80.4571429,71.3615673 79.6734694,64.0472816 C78.6285714,58.3003429 76.277551,48.1125878 81.5020408,43.6717714 M135.314286,27.998302 C144.195918,29.8268735 141.844898,48.1125878 141.583673,54.9044245 C141.583673,62.2187102 142.367347,116.814629 130.873469,115.247282 C119.118367,113.41871 121.991837,59.3452408 121.469388,50.7248327 C121.730612,41.8432 123.036735,25.6472816 135.314286,27.998302 M162.481633,67.1819755 C163.526531,61.6962612 164.571429,51.5085061 170.840816,49.1574857 C183.118367,44.1942204 182.857143,59.6064653 181.55102,66.920751 C179.983673,73.9738122 170.579592,129.09218 158.040816,123.86769 C148.636735,119.949322 160.914286,74.2350367 162.481633,67.1819755" fill="#FFFFFF"/>
  </g>
</svg>

<svg width="256" height="256" xmlns="http://www.w3.org/2000/svg" preserveAspectRatio="xMidYMid"><path d="M20.898 0h214.204C246.596 0 256 9.404 256 20.898v214.204c0 11.494-9.404 20.898-20.898 20.898H20.898C9.404 256 0 246.596 0 235.102V20.898C0 9.404 9.404 0 20.898 0Z" fill="#181819"/><path d="M154.122 213.206c-7.314 3.919-16.718 6.27-22.204 6.792-21.942 1.829-43.885-3.918-59.036-18.547-14.89-15.673-18.025-36.571-4.441-53.812 12.539-15.935 32.914-22.988 54.073-23.771 11.755-.523 51.462 4.18 39.706 23.249-9.404 15.673-35.265 0-50.155 4.963-16.718 5.486-21.42 27.69-5.747 37.094 11.494 6.792 27.951 6.27 38.923-.784 15.673-10.188 44.93-57.992 63.739-35.265 3.657 4.702-40.49 52.245-54.858 60.081M43.886 89.386c-1.568-7.837.522-16.718 8.359-15.673 6.792 1.044 9.143 10.71 10.449 17.502 1.045 5.747 15.15 46.498 7.837 45.191-7.053-1.567-25.078-38.922-26.645-47.02m37.616-45.714c10.449-8.882 15.412 6.27 16.718 13.845 1.045 7.314 14.368 62.694.262 61.649-10.71-.784-18.025-47.804-18.809-55.119-1.044-5.747-3.395-15.934 1.829-20.375m53.812-15.674c8.882 1.829 6.53 20.115 6.27 26.906 0 7.315.783 61.91-10.71 60.343-11.756-1.828-8.882-55.902-9.405-64.522.262-8.882 1.568-25.078 13.845-22.727m27.168 39.184c1.045-5.486 2.09-15.673 8.359-18.025 12.277-4.963 12.016 10.45 10.71 17.764-1.567 7.053-10.971 62.171-23.51 56.947-9.404-3.919 2.873-49.633 4.44-56.686" fill="#FFF"/></svg>
